X: 587
T: Liffey's Silvery Stream., The
T: an a.main lonn.ra.c liffi.
R:march
N:"Slow."
B:O'Neill's 587
Z:Transcribed by John B. Walsh (walsh@math.ubc.ca)
M:2/4
L:1/16
%Q:70
K:D
A2|(AF3)A2B2|(d3((3e/d/c/)de) f3e|(dB3) c2(e>f)|d4 z2 A2|
A2F2A2B2|(d3((3e/d/c/)de) f2Ha2|B3d c2(ef)|d4 z2||
(de)|f2e2d2B2|A2F2E2F2|(B2((3c/B/A/)Bc) .d2(de)|Hf4 e2A2|
d2c2B2d2|g2e2Ha2e2|f2d2 B2d2|("~"A3B cdeg)|fd3 z2||


